assets/images/connect-drive/business-icon.svg

<svg width="12" height="8" viewBox="0 0 12 8" fill="none" xmlns="http://www.w3.org/2000/svg">
<path d="M5.53756 1.28959C5.53756 1.38296 5.53756 1.38296 5.49044 1.43311C5.45895 1.45884 5.45895 1.45884 5.42682 1.48509C5.40461 1.50353 5.3824 1.52198 5.35951 1.54098C5.32204 1.57116 5.28452 1.60128 5.24688 1.63125C4.85702 1.94371 4.45735 2.45681 4.37255 2.94694C4.35732 3.12102 4.35761 3.27005 4.46963 3.41381C4.58095 3.53444 4.70712 3.56917 4.8701 3.58596C5.18292 3.57555 5.46355 3.43878 5.73173 3.29709C5.75723 3.28382 5.78273 3.27055 5.809 3.25688C6.04146 3.13129 6.2615 2.98482 6.46385 2.81783C6.48087 2.80392 6.4979 2.79 6.51545 2.77567C6.54842 2.74848 6.58104 2.72089 6.61324 2.69285C6.69053 2.62909 6.74624 2.58824 6.85029 2.58558C7.59402 2.67339 8.34681 3.32315 8.93821 3.73229C9.0245 3.79187 9.11123 3.85086 9.19795 3.90985C9.21516 3.92158 9.23236 3.93331 9.25009 3.94539C9.35082 4.01381 9.45265 4.07996 9.55595 4.14474C9.7478 4.26724 9.93354 4.38776 9.99368 4.6116C10.0196 4.76668 9.98883 4.88941 9.90637 5.02448C9.7879 5.14901 9.64653 5.20231 9.47404 5.21706C9.26445 5.22144 9.124 5.16806 8.95334 5.0563C8.93638 5.04538 8.91942 5.03446 8.90195 5.02321C8.84628 4.98731 8.79078 4.95119 8.73528 4.91506C8.69649 4.88997 8.65769 4.8649 8.61888 4.83984C8.51796 4.77462 8.41719 4.70918 8.31647 4.64367C8.2569 4.60493 8.19731 4.56623 8.13771 4.52754C7.97492 4.42183 7.81216 4.31606 7.64963 4.20999C7.61833 4.18959 7.58702 4.16922 7.55567 4.1489C7.49107 4.10699 7.42689 4.0648 7.36343 4.0213C7.34443 4.00841 7.32542 3.99552 7.30585 3.98225C7.29033 3.97143 7.27482 3.96062 7.25884 3.94948C7.19939 3.92123 7.15642 3.92158 7.09091 3.92735C7.028 3.96491 7.01942 3.99273 6.9999 4.06158C7.04729 4.25908 7.39619 4.40537 7.5676 4.51398C7.65727 4.57082 7.74676 4.62793 7.83621 4.68509C7.85377 4.69631 7.87134 4.70754 7.88943 4.7191C8.04847 4.82096 8.20499 4.92604 8.36089 5.03229C8.54868 5.1598 8.74147 5.27951 8.93552 5.39796C8.92838 5.43136 8.92108 5.46473 8.91371 5.49808C8.90967 5.51667 8.90562 5.53525 8.90145 5.5544C8.87957 5.63552 8.84832 5.68601 8.78989 5.74811C8.66534 5.81839 8.54316 5.83111 8.40155 5.81814C8.26057 5.76806 8.13923 5.69633 8.01322 5.61826C7.99286 5.60577 7.9725 5.59328 7.95152 5.58041C7.83172 5.50664 7.71275 5.43175 7.59454 5.35566C7.58055 5.34667 7.56657 5.33769 7.55216 5.32844C7.48104 5.28272 7.41 5.23689 7.33917 5.19075C7.2647 5.14234 7.18996 5.09433 7.11518 5.04636C7.0914 5.03076 7.06761 5.01517 7.04311 4.9991C6.87411 4.89114 6.87411 4.89114 6.6783 4.86107C6.62774 4.88247 6.62774 4.88247 6.60549 4.9311C6.59499 4.9996 6.59499 4.9996 6.60549 5.07116C6.64485 5.11761 6.64485 5.11761 6.70561 5.15286C6.72983 5.16857 6.75404 5.18428 6.77899 5.20046C6.81011 5.21968 6.84127 5.23882 6.87247 5.25791C6.892 5.26997 6.91153 5.28202 6.93166 5.29445C7.04546 5.36464 7.15958 5.43433 7.27389 5.50374C7.42754 5.59724 7.57884 5.6939 7.72958 5.79165C7.79919 5.83671 7.86905 5.88138 7.93889 5.9261C8.00032 5.96549 8.00032 5.96549 8.06176 6.00488C8.0354 6.15945 7.96984 6.28677 7.84635 6.39004C7.6803 6.4667 7.52982 6.45181 7.3579 6.40172C7.23517 6.34989 7.13082 6.27971 7.02265 6.20476C7.00489 6.19262 6.98712 6.18049 6.96882 6.16798C6.87407 6.10321 6.77988 6.03774 6.68608 5.97169C6.66774 5.95892 6.6494 5.94614 6.6305 5.93298C6.59538 5.9085 6.56042 5.88382 6.52563 5.8589C6.43265 5.79436 6.3602 5.74993 6.24142 5.74811C6.16488 5.78694 6.16488 5.78694 6.14889 5.85024C6.14361 5.92133 6.15419 5.94512 6.19288 6.00488C6.23577 6.0411 6.23577 6.0411 6.28741 6.07218C6.30647 6.08439 6.32552 6.0966 6.34516 6.10918C6.36549 6.12195 6.38582 6.13471 6.40677 6.14786C6.60075 6.27228 6.78708 6.40219 6.96956 6.54177C6.94584 6.67707 6.8924 6.74286 6.77842 6.82627C6.58739 6.93283 6.39296 6.94448 6.17771 6.92985C6.15087 6.92832 6.15087 6.92832 6.12348 6.92675C6.03155 6.92105 5.94285 6.91205 5.85309 6.89192C5.85659 6.86031 5.86014 6.8287 5.8637 6.79709C5.86666 6.77068 5.86666 6.77068 5.86968 6.74375C5.87542 6.69748 5.88238 6.65135 5.88997 6.60533C5.95981 6.08485 5.83582 5.55603 5.51623 5.1266C5.15469 4.68022 4.67636 4.40547 4.09343 4.31543C3.60829 4.2584 3.0527 4.36321 2.65897 4.65035C2.62227 4.67926 2.58609 4.70879 2.55069 4.73916C2.50367 4.7677 2.50367 4.7677 2.45532 4.76734C2.33815 4.71209 2.26531 4.58596 2.18814 4.48759C2.17778 4.47439 2.16742 4.46119 2.15675 4.44759C1.84543 4.04728 1.84543 4.04728 1.7998 3.90401C1.82496 3.77094 1.9109 3.66427 1.98791 3.55386C2.01672 3.51191 2.04551 3.46993 2.07428 3.42794C2.08913 3.40632 2.10399 3.38469 2.1193 3.36241C2.19042 3.25818 2.25983 3.15292 2.32922 3.04761C2.46792 2.83746 2.60726 2.62772 2.74688 2.41814C2.84168 2.27578 2.93615 2.13324 3.0303 1.99049C3.08535 1.90709 3.14063 1.82382 3.19594 1.74058C3.22841 1.69154 3.26057 1.64232 3.29267 1.59305C3.30963 1.56753 3.32658 1.54201 3.34406 1.51572C3.3648 1.48408 3.3648 1.48408 3.38596 1.4518C3.42597 1.4063 3.42597 1.4063 3.47176 1.38643C3.53497 1.38216 3.5871 1.39171 3.64896 1.40484C4.03199 1.47619 4.41017 1.37849 4.78273 1.2924C5.29686 1.17384 5.29686 1.17384 5.53756 1.28959Z" fill="white"/>
<path d="M4.94442 4.97769C5.30486 5.27785 5.54697 5.66927 5.5915 6.13014C5.62328 6.62015 5.49718 7.06455 5.15651 7.44066C4.84392 7.76171 4.4481 7.97288 3.98684 7.99852C3.46057 8.01443 2.99445 7.8904 2.60017 7.54352C2.26496 7.23278 2.07231 6.80425 2.05966 6.3578C2.05485 5.86234 2.24452 5.42614 2.60102 5.06797C3.23815 4.48125 4.25819 4.45453 4.94442 4.97769ZM4.52271 5.63057C4.50606 5.64553 4.48942 5.66048 4.47227 5.67589C4.45537 5.69175 4.43848 5.7076 4.42107 5.72394C4.39648 5.74665 4.39648 5.74665 4.37139 5.76981C4.2938 5.84284 4.22035 5.91773 4.14954 5.99686C4.05139 6.10535 3.94636 6.20644 3.84008 6.30752C3.82117 6.3256 3.80225 6.34369 3.78277 6.36232C3.7367 6.40636 3.69057 6.45034 3.64439 6.49426C3.51069 6.38775 3.39394 6.274 3.27653 6.15096C3.19431 6.08719 3.14228 6.07647 3.03762 6.07409C2.97492 6.10716 2.97492 6.10716 2.94053 6.16746C2.92663 6.23394 2.92663 6.23394 2.94053 6.30752C2.98194 6.36073 3.01989 6.40244 3.069 6.44803C3.08218 6.46073 3.09536 6.47343 3.10894 6.48652C3.13682 6.51322 3.16488 6.53976 3.19311 6.56613C3.2362 6.60647 3.2786 6.64739 3.32095 6.68844C3.34817 6.71436 3.37543 6.74024 3.40273 6.76608C3.41537 6.77829 3.42802 6.79049 3.44105 6.80307C3.51288 6.86952 3.56647 6.91423 3.66867 6.91444C3.71354 6.89342 3.71354 6.89342 3.752 6.85453C3.76867 6.83936 3.78535 6.82419 3.80252 6.80856C3.82243 6.78958 3.84233 6.7706 3.86283 6.75104C3.88834 6.72708 3.91384 6.70314 3.93936 6.6792C4.0129 6.60984 4.0858 6.53988 4.1585 6.46972C4.20405 6.42579 4.24972 6.38199 4.2954 6.3382C4.49381 6.14754 4.49381 6.14754 4.68009 5.94598C4.71232 5.91069 4.71232 5.91069 4.78362 5.84941C4.83964 5.79686 4.83964 5.79686 4.84733 5.72248C4.83053 5.63809 4.8094 5.60974 4.7366 5.56054C4.63705 5.54904 4.59485 5.56513 4.52271 5.63057Z" fill="white"/>
<path d="M7.33308 1.21962C7.39012 1.24127 7.44726 1.26267 7.5045 1.28382C7.52981 1.29333 7.55512 1.30283 7.5812 1.31263C7.88958 1.42109 8.28713 1.38356 8.59518 1.28965C8.93285 1.78717 9.26499 2.28806 9.5964 2.78944C9.67068 2.9018 9.74502 3.01413 9.81936 3.12646C9.89943 3.24748 9.89943 3.24748 9.93823 3.3064C9.96727 3.35008 9.99668 3.39352 10.0263 3.43681C10.0419 3.45973 10.0575 3.48264 10.0735 3.50624C10.0879 3.52709 10.1022 3.54793 10.117 3.56941C10.1485 3.62396 10.1485 3.62396 10.1485 3.69399C10.0944 3.74596 10.0944 3.74596 10.0226 3.80195C9.99926 3.82054 9.97588 3.83914 9.9518 3.8583C9.84127 3.93032 9.84127 3.93032 9.7602 3.92742C9.69195 3.89416 9.63288 3.85075 9.57209 3.80633C9.53497 3.78015 9.49783 3.75398 9.46069 3.72782C9.44183 3.71435 9.42297 3.70088 9.40353 3.687C9.3186 3.62673 9.23224 3.56846 9.14583 3.51016C9.11154 3.48692 9.07725 3.46366 9.04296 3.44041C9.02549 3.42856 9.00801 3.41672 8.99 3.40451C8.95206 3.37878 8.91415 3.35301 8.87625 3.32721C7.88792 2.57728 7.88792 2.57728 6.7263 2.2934C6.58156 2.34487 6.46872 2.43103 6.35313 2.52683C6.14855 2.69136 5.93211 2.83335 5.70691 2.97035C5.6801 2.98675 5.65329 3.00315 5.62566 3.02005C5.40812 3.14768 5.15389 3.27451 4.89383 3.27965C4.87556 3.28025 4.85729 3.28085 4.83846 3.28147C4.76845 3.27151 4.73697 3.25229 4.68753 3.20378C4.62619 2.97024 4.75702 2.72478 4.87411 2.52683C5.05976 2.24482 5.28836 1.96893 5.55465 1.75433C5.59715 1.72005 5.63885 1.68485 5.68018 1.64928C6.15106 1.24699 6.71985 0.966271 7.33308 1.21962Z" fill="white"/>
<path d="M2.19072 0.138672C2.32748 0.171113 2.44502 0.256686 2.56142 0.329611C2.58699 0.345324 2.61255 0.361037 2.63889 0.377226C2.71538 0.424323 2.79161 0.47179 2.86784 0.519273C2.91055 0.545536 2.95327 0.571769 2.99603 0.597965C3.27144 0.767379 3.27144 0.767379 3.329 0.822733C3.35228 0.978143 3.29155 1.06297 3.20461 1.18601C3.17761 1.22561 3.15062 1.26521 3.12364 1.30482C3.10947 1.32534 3.09531 1.34586 3.08071 1.367C3.01031 1.46965 2.94227 1.57375 2.87391 1.67767C2.73449 1.88848 2.59441 2.09888 2.45431 2.30927C2.34917 2.46719 2.24432 2.62529 2.13971 2.78355C1.96991 3.04035 1.79969 3.29689 1.62874 3.55299C1.58214 3.6229 1.53572 3.69292 1.48932 3.76295C1.46089 3.8056 1.43244 3.84825 1.40399 3.89088C1.38458 3.92032 1.38458 3.92032 1.36478 3.95035C1.35278 3.96825 1.34079 3.98615 1.32843 4.00459C1.31288 4.02799 1.31288 4.02799 1.29702 4.05186C1.26595 4.09076 1.26595 4.09076 1.19314 4.13745C1.04026 4.13834 0.924335 4.04612 0.801763 3.96821C0.778573 3.95373 0.755384 3.93925 0.731492 3.92433C0.683089 3.89408 0.634755 3.86372 0.586487 3.83327C0.514986 3.78821 0.443253 3.74352 0.371424 3.69894C0.286854 3.64639 0.202292 3.59383 0.117905 3.54101C0.101094 3.5305 0.0842829 3.51999 0.0669625 3.50916C0.0281204 3.48384 0.0281204 3.48384 0.00384929 3.4605C-0.0145288 3.3088 0.0344551 3.22779 0.11762 3.10597C0.13558 3.07872 0.13558 3.07872 0.153903 3.05092C0.192469 2.99266 0.231593 2.93477 0.270832 2.87692C0.296186 2.83921 0.321532 2.80149 0.346869 2.76376C0.399127 2.68616 0.45163 2.60871 0.504252 2.53133C0.588732 2.40689 0.67188 2.28165 0.754738 2.1562C0.768877 2.1348 0.783017 2.11339 0.797585 2.09133C0.82623 2.04794 0.854869 2.00455 0.8835 1.96115C0.953264 1.85543 1.02313 1.74977 1.09302 1.64412C1.10691 1.62312 1.1208 1.60212 1.13511 1.58048C1.25937 1.39271 1.38408 1.20521 1.50901 1.01785C1.58983 0.896576 1.67033 0.77512 1.75014 0.653222C1.76542 0.629932 1.78071 0.606642 1.79645 0.582646C1.82517 0.538839 1.85381 0.494983 1.88235 0.451068C1.91884 0.395472 1.95615 0.340536 1.99408 0.285842C2.00415 0.270628 2.01421 0.255413 2.02458 0.239738C2.07524 0.170713 2.10214 0.147041 2.19072 0.138672Z" fill="white"/>
<path d="M9.90692 0.00596554C9.95043 0.041436 9.95043 0.041436 9.98428 0.0949609C9.99836 0.116416 10.0124 0.13787 10.0269 0.159975C10.0516 0.199288 10.0516 0.199288 10.0768 0.239396C10.0979 0.271513 10.1191 0.303576 10.1403 0.335595C10.1898 0.410308 10.239 0.485208 10.288 0.560272C10.3697 0.685627 10.4523 0.810508 10.5349 0.935311C10.5638 0.978836 10.5926 1.02236 10.6214 1.06589C10.6429 1.09834 10.6429 1.09834 10.6648 1.13145C10.707 1.19517 10.7492 1.25891 10.7913 1.32266C10.9574 1.5739 11.124 1.82483 11.2909 2.07553C11.3702 2.19466 11.4495 2.31384 11.5284 2.43319C11.5432 2.45545 11.5579 2.47772 11.5731 2.50066C11.6016 2.5439 11.6302 2.58717 11.6586 2.63047C11.7197 2.72318 11.7811 2.81538 11.8455 2.90597C11.8559 2.92079 11.8663 2.9356 11.877 2.95087C11.9038 2.98895 11.9311 3.02676 11.9584 3.06454C12.0022 3.1493 12.0069 3.20384 11.9942 3.29734C11.9627 3.33919 11.9627 3.33919 11.9138 3.37174C11.8939 3.38516 11.874 3.39858 11.8535 3.41241C11.8279 3.42836 11.8022 3.44431 11.7758 3.46074C11.7595 3.47088 11.7432 3.48103 11.7264 3.49149C11.6298 3.55146 11.5326 3.61045 11.4349 3.66873C11.3571 3.71512 11.28 3.76238 11.2035 3.81079C11.1862 3.82164 11.1688 3.8325 11.1509 3.84368C11.1184 3.86405 11.086 3.88465 11.0538 3.90551C10.9597 3.96378 10.8926 3.9941 10.7807 3.97428C10.6785 3.90312 10.6184 3.78738 10.5531 3.68541C10.5271 3.64525 10.5011 3.6051 10.475 3.56496C10.4615 3.54401 10.4479 3.52307 10.434 3.50148C10.3652 3.39556 10.2953 3.29029 10.2255 3.185C10.1967 3.14147 10.1678 3.09795 10.139 3.05442C10.1247 3.03279 10.1104 3.01115 10.0956 2.98886C10.0534 2.92514 10.0112 2.8614 9.96911 2.79765C9.80296 2.5463 9.63631 2.29526 9.46926 2.04447C9.39111 1.92711 9.31307 1.80969 9.23538 1.69204C9.22115 1.6705 9.20692 1.64896 9.19226 1.62676C9.16433 1.58443 9.13645 1.54207 9.10861 1.49969C9.03841 1.39309 8.96701 1.28754 8.89331 1.18315C8.87124 1.15157 8.87124 1.15157 8.84872 1.11935C8.8208 1.07952 8.79257 1.0399 8.76398 1.00052C8.68888 0.892914 8.64274 0.817011 8.66909 0.682914C8.73392 0.610727 8.80535 0.561852 8.88943 0.512035C8.92542 0.490554 8.92542 0.490554 8.96215 0.468638C8.98758 0.453651 9.01302 0.438664 9.03922 0.423223C9.09191 0.39202 9.1446 0.360804 9.19727 0.329577C9.22306 0.31431 9.24886 0.299042 9.27543 0.283312C9.34008 0.244554 9.40394 0.204944 9.46748 0.164534C9.48482 0.15363 9.50216 0.142726 9.52002 0.131491C9.5514 0.111681 9.58259 0.0916002 9.61355 0.0711961C9.71408 0.00842849 9.78786 -0.011292 9.90692 0.00596554Z" fill="white"/>
</svg>

<svg xmlns="http://www.w3.org/2000/svg" width="12" height="8" fill="none" viewBox="0 0 12 8"><path fill="#fff" d="M5.538 1.29c0 .093 0 .093-.048.143l-.063.052-.067.056-.113.09c-.39.313-.79.826-.874 1.316-.016.174-.015.323.097.467.11.12.237.155.4.172.313-.01.594-.147.862-.289l.077-.04a4 4 0 0 0 .655-.44l.051-.041.098-.083c.078-.064.133-.105.237-.107.744.087 1.497.737 2.088 1.146l.26.178.052.035q.15.103.306.2c.192.122.378.243.438.467a.56.56 0 0 1-.088.412.63.63 0 0 1-.432.193.83.83 0 0 1-.52-.16l-.638-.413-.76-.495-.193-.128-.057-.039-.047-.033a.3.3 0 0 0-.168-.022c-.063.038-.072.066-.091.135.047.197.396.343.568.452l.268.171.053.034q.239.154.472.313.282.19.575.366l-.022.1-.013.056a.4.4 0 0 1-.111.194.63.63 0 0 1-.388.07 2 2 0 0 1-.389-.2l-.061-.038a21 21 0 0 1-.613-.39l-.224-.144L7.043 5c-.169-.108-.169-.108-.365-.138-.05.021-.05.021-.073.07-.01.069-.01.069 0 .14.04.047.04.047.1.082l.074.047.093.058.06.036.342.21q.23.14.456.288l.209.134.123.079a.6.6 0 0 1-.216.385c-.166.077-.316.062-.488.012a2 2 0 0 1-.335-.197l-.054-.037q-.143-.097-.283-.196l-.056-.039-.104-.074c-.093-.065-.166-.11-.285-.11-.076.038-.076.038-.092.101-.005.071.005.095.044.155a.5.5 0 0 0 .094.067l.058.037.062.039q.29.185.563.394c-.024.135-.078.2-.192.284-.19.107-.385.118-.6.104l-.055-.003a2 2 0 0 1-.27-.035l.01-.095.007-.053q.008-.07.02-.139a2 2 0 0 0-.374-1.478 2.2 2.2 0 0 0-1.423-.812c-.485-.057-1.04.048-1.434.335l-.108.09c-.047.028-.047.028-.096.027-.117-.055-.19-.181-.267-.28l-.031-.04c-.312-.4-.312-.4-.357-.543.025-.133.11-.24.188-.35l.131-.192.21-.314A176 176 0 0 1 3.03 1.99l.263-.397.051-.077.042-.064c.04-.046.04-.046.086-.066a.6.6 0 0 1 .177.019c.383.071.761-.027 1.134-.113.514-.118.514-.118.755-.002"/><path fill="#fff" d="M4.944 4.978c.36.3.603.691.648 1.152.031.49-.095.935-.435 1.31-.313.322-.709.533-1.17.559-.526.015-.993-.109-1.387-.455a1.68 1.68 0 0 1-.54-1.186 1.76 1.76 0 0 1 .541-1.29c.637-.587 1.657-.613 2.343-.09m-.421.653-.05.045-.052.048-.05.046a4 4 0 0 0-.221.227 6 6 0 0 1-.367.365l-.139.132a4 4 0 0 1-.367-.343c-.083-.064-.135-.075-.24-.077-.062.033-.062.033-.096.093-.014.067-.014.067 0 .14.04.054.079.095.128.141l.252.24.082.078.038.037c.072.067.125.111.228.111.045-.02.045-.02.083-.06l.05-.045.493-.47c.199-.191.199-.191.385-.393.032-.035.032-.035.104-.097.056-.052.056-.052.063-.127-.016-.084-.038-.112-.11-.161-.1-.012-.142.004-.214.07m2.81-4.411.172.064.076.029c.309.108.706.07 1.014-.023A148 148 0 0 1 9.82 3.126l.12.18.087.13.047.07.044.063c.031.055.031.055.031.125-.054.052-.054.052-.125.108l-.071.056c-.11.072-.11.072-.192.07a1.3 1.3 0 0 1-.188-.122l-.111-.078-.057-.041q-.128-.09-.258-.177l-.103-.07-.053-.035-.114-.078c-.988-.75-.988-.75-2.15-1.034a1.2 1.2 0 0 0-.373.234 6 6 0 0 1-.727.493c-.218.128-.472.255-.732.26l-.056.001a.23.23 0 0 1-.15-.077c-.062-.234.069-.48.186-.677.186-.282.414-.558.68-.773q.064-.052.126-.105c.471-.402 1.04-.683 1.653-.43M2.19.139c.137.032.255.118.371.19l.078.048.357.221c.275.17.275.17.333.225.023.155-.037.24-.124.363l-.081.119-.043.062q-.105.155-.207.31L2.14 2.785a211 211 0 0 1-.736 1.107l-.04.06-.036.054-.031.047c-.031.039-.031.039-.104.085-.153.001-.269-.09-.391-.169l-.684-.427-.051-.032c-.039-.025-.039-.025-.063-.048-.019-.152.03-.233.114-.355l.036-.055.193-.287.157-.233a36 36 0 0 0 .38-.57l.209-.317.042-.064.615-.927.046-.07.086-.134.112-.165.03-.046c.051-.07.078-.093.167-.101M9.907.006a.25.25 0 0 1 .077.089l.043.065.05.08.211.32a64 64 0 0 0 .503.763l.737 1.11.045.068.086.13q.09.138.186.275l.032.045.081.114a.33.33 0 0 1 .036.232c-.031.042-.031.042-.08.075l-.06.04-.078.049-.05.03q-.144.09-.291.178-.117.069-.232.142l-.052.033-.097.062c-.094.058-.161.088-.273.068-.103-.07-.163-.187-.228-.289l-.078-.12-.041-.064-.208-.316-.087-.13-.043-.066-.127-.191-.777-1.171L9.11 1.5a12 12 0 0 0-.216-.317L8.85 1.12l-.085-.118C8.689.893 8.643.817 8.669.683a.9.9 0 0 1 .22-.171l.073-.043.077-.046.158-.093.078-.047q.098-.057.192-.118L9.52.13l.094-.06a.38.38 0 0 1 .293-.065"/></svg>
